assets/img/sections/section-learn.svg

<svg width="548" height="138" viewBox="0 0 548 138" fill="none" xmlns="http://www.w3.org/2000/svg">
<circle cx="204.75" cy="68.75" r="68.75" fill="#1D4874"/>
<mask id="mask0_1_38" style="mask-type:alpha" maskUnits="userSpaceOnUse" x="136" y="0" width="138" height="138">
<path d="M204.75 137.499C242.719 137.499 273.5 106.719 273.5 68.7497C273.5 30.7804 242.719 0 204.75 0C166.78 0 136 30.7803 136 68.7497C136 106.719 166.78 137.499 204.75 137.499Z" fill="#1D4874"/>
</mask>
<g mask="url(#mask0_1_38)">
<path opacity="0.63" d="M313.518 123.156C312.674 121.632 310.822 120.333 309.597 119.109C308.05 117.561 250.534 59.2929 244.946 54.4634C244.678 54.1469 244.326 53.8644 243.886 53.6244L209.545 34.9297C208.99 34.6205 208.41 34.3857 207.823 34.231C207.239 34.0778 206.632 34 206.016 34C205.401 34 204.794 34.0778 204.209 34.231C203.623 34.3852 203.044 34.6204 202.483 34.9321L163.756 56.0738C163.196 56.3534 162.775 56.747 162.468 57.2786C162.153 57.8208 162 58.3898 162 59.0186V85.0252C162 86.6484 163.214 87.6945 164.278 88.7448C165.711 90.1596 228.242 152.693 229.666 154.117C230.844 155.294 231.842 156.682 233.657 156.682C234.629 156.682 235.418 156.365 236.07 155.714C236.721 155.062 237.038 154.273 237.038 153.301V146.952C237.123 147.038 237.208 147.123 237.297 147.205C237.408 147.32 237.519 147.437 237.638 147.546C237.75 147.662 237.86 147.778 237.98 147.888C238.091 148.003 238.202 148.12 238.321 148.229C238.433 148.345 238.543 148.461 238.663 148.57C238.774 148.686 238.884 148.802 239.004 148.911C239.115 149.027 239.226 149.144 239.346 149.253C239.457 149.369 239.567 149.485 239.687 149.594C239.798 149.71 239.909 149.826 240.028 149.936C240.14 150.051 240.25 150.168 240.369 150.277C240.481 150.393 240.592 150.509 240.711 150.619C240.823 150.734 240.933 150.851 241.052 150.96C241.164 151.076 241.274 151.192 241.394 151.301C241.505 151.417 241.615 151.533 241.735 151.642C241.846 151.758 241.957 151.875 242.077 151.984C242.188 152.1 242.298 152.216 242.418 152.325C242.529 152.441 242.64 152.557 242.759 152.667C242.871 152.783 242.981 152.899 243.101 153.008C243.212 153.124 243.322 153.24 243.442 153.349C243.553 153.465 243.664 153.582 243.784 153.691C243.895 153.807 244.005 153.923 244.125 154.032C244.236 154.148 244.347 154.264 244.466 154.374C244.577 154.489 244.688 154.606 244.807 154.715C244.919 154.831 245.029 154.947 245.149 155.057C245.26 155.172 245.371 155.289 245.49 155.398C245.602 155.514 245.712 155.63 245.832 155.739C245.943 155.855 246.053 155.971 246.173 156.08C246.284 156.196 246.395 156.313 246.515 156.422C246.626 156.538 246.736 156.654 246.856 156.763C246.967 156.879 247.078 156.995 247.197 157.105C247.308 157.22 247.419 157.337 247.538 157.446C247.65 157.562 247.76 157.678 247.88 157.788C247.991 157.903 248.102 158.02 248.221 158.129C248.333 158.245 248.443 158.361 248.563 158.47C249.098 159.027 249.717 159.516 250.438 159.913L270.764 170.888C271.32 171.197 271.899 171.433 272.485 171.587C273.068 171.74 273.675 171.818 274.292 171.818C274.909 171.818 275.517 171.74 276.099 171.587C276.686 171.432 277.265 171.197 277.828 170.884L298.141 159.915C299.381 159.233 300.354 158.309 301.032 157.168C301.709 156.028 302.054 154.727 302.054 153.301V133.796C302.054 133.548 302.189 133.319 302.407 133.198L312.162 127.812C312.788 127.471 313.244 127.048 313.517 126.557C313.802 126.045 313.94 125.489 313.94 124.856C313.94 124.224 313.802 123.668 313.518 123.156Z" fill="#22244E"/>
</g>
<path d="M205.99 103.533C205.374 103.533 204.767 103.455 204.184 103.302C203.599 103.148 203.02 102.913 202.464 102.604L182.15 91.6294C180.915 90.9498 179.944 90.0257 179.266 88.8854C178.588 87.7456 178.244 86.4447 178.244 85.0188V65.5164C178.244 65.2673 178.109 65.0381 177.891 64.9182L169.769 60.4487C169.667 60.3923 169.553 60.364 169.44 60.364C169.32 60.364 169.199 60.396 169.093 60.4594C168.885 60.5821 168.758 60.8057 168.758 61.0469V85.0187C168.758 85.9905 168.442 86.7794 167.791 87.4312C167.139 88.0822 166.351 88.3988 165.379 88.3988C164.408 88.3988 163.62 88.0822 162.968 87.4308C162.317 86.7789 162 85.9896 162 85.0187V59.0154C162 58.3867 162.153 57.8177 162.467 57.2756C162.775 56.7441 163.196 56.3506 163.755 56.0709L202.459 34.9319C203.02 34.6204 203.599 34.3852 204.184 34.231C204.768 34.0778 205.376 34 205.99 34C206.606 34 207.213 34.0778 207.796 34.231C208.383 34.3857 208.962 34.6204 209.517 34.9296L243.838 53.6219C244.463 53.9631 244.92 54.3857 245.194 54.8779C245.477 55.389 245.615 55.945 245.615 56.5774C245.615 57.2098 245.477 57.7663 245.193 58.2779C244.92 58.7696 244.463 59.1918 243.838 59.533L234.088 64.9187C233.871 65.039 233.736 65.2677 233.736 65.5164V85.0188C233.736 86.4447 233.391 87.7456 232.714 88.885C232.037 90.0257 231.065 90.9498 229.826 91.6322L209.525 102.6C208.962 102.913 208.383 103.148 207.796 103.302C207.215 103.455 206.606 103.533 205.99 103.533ZM185.685 69.0997C185.564 69.0997 185.445 69.1316 185.337 69.1946C185.13 69.3173 185.002 69.5409 185.002 69.7826V85.1201C185.002 85.3711 185.139 85.6016 185.361 85.7206L205.666 96.6906C205.767 96.7457 205.878 96.773 205.99 96.773C206.101 96.773 206.213 96.7456 206.314 96.6906L226.62 85.7206C226.841 85.6016 226.978 85.3711 226.978 85.1201V69.7826C226.978 69.5409 226.85 69.3173 226.643 69.1946C226.535 69.1316 226.416 69.0997 226.296 69.0997C226.182 69.0997 226.068 69.1284 225.965 69.1849L209.619 78.2247C209.064 78.5335 208.47 78.7682 207.855 78.9224C207.236 79.0771 206.607 79.1553 205.99 79.1553C205.373 79.1553 204.744 79.0771 204.125 78.922C203.51 78.7683 202.917 78.5335 202.362 78.2257L186.015 69.1849C185.912 69.1284 185.798 69.0997 185.685 69.0997ZM205.99 40.8616C205.878 40.8616 205.767 40.8889 205.666 40.944L177.847 55.977C177.626 56.0959 177.489 56.3265 177.489 56.5774C177.489 56.8284 177.626 57.0589 177.847 57.1779L205.666 72.2113C205.767 72.2659 205.878 72.2937 205.99 72.2937C206.102 72.2937 206.213 72.2659 206.314 72.2113L234.133 57.1779C234.354 57.0589 234.491 56.8284 234.491 56.5774C234.491 56.3265 234.354 56.0959 234.133 55.977L206.314 40.944C206.213 40.8889 206.102 40.8616 205.99 40.8616Z" fill="#7AA5E7"/>
<path d="M272.545 30C272.545 13.4315 285.977 0 302.545 0H410.045V107.5C410.045 124.069 396.614 137.5 380.045 137.5H272.545V30Z" fill="#2D618C"/>
<path d="M0 0V137.5H68.5939C106.65 137.5 137.5 106.72 137.5 68.75C137.5 30.7804 106.65 2.115e-05 68.5939 2.115e-05L0 0Z" fill="url(#paint0_linear_1_38)"/>
<path d="M504.205 70.409C521.292 70.409 535.143 56.5578 535.143 39.4715C535.143 22.3852 521.292 8.53406 504.205 8.53406C487.119 8.53406 473.268 22.3852 473.268 39.4715C473.268 56.5578 487.119 70.409 504.205 70.409Z" fill="url(#paint1_linear_1_38)"/>
<path d="M547.5 137.5H410V0L547.5 137.5Z" fill="url(#paint2_linear_1_38)"/>
<defs>
<linearGradient id="paint0_linear_1_38" x1="11.2021" y1="15.7284" x2="68.75" y2="101.284" gradientUnits="userSpaceOnUse">
<stop stop-color="#7AA5E7"/>
<stop offset="1" stop-color="#003BA1"/>
</linearGradient>
<linearGradient id="paint1_linear_1_38" x1="473.268" y1="39.4715" x2="535.143" y2="39.4715" gradientUnits="userSpaceOnUse">
<stop stop-color="#7AA5E7"/>
<stop offset="0.99716" stop-color="#003BA1"/>
</linearGradient>
<linearGradient id="paint2_linear_1_38" x1="497.175" y1="61.3069" x2="409.548" y2="137.36" gradientUnits="userSpaceOnUse">
<stop stop-color="#7AA5E7"/>
<stop offset="0.99716" stop-color="#003BA1"/>
</linearGradient>
</defs>
</svg>

<svg xmlns="http://www.w3.org/2000/svg" width="548" height="138" fill="none" viewBox="0 0 548 138"><circle cx="204.75" cy="68.75" r="68.75" fill="#1d4874"/><mask id="a" width="138" height="138" x="136" y="0" maskUnits="userSpaceOnUse" style="mask-type:alpha"><path fill="#1d4874" d="M204.75 137.499c37.969 0 68.75-30.78 68.75-68.75S242.719 0 204.75 0 136 30.78 136 68.75s30.78 68.749 68.75 68.749"/></mask><g mask="url(#a)"><path fill="#22244e" d="M313.518 123.156c-.844-1.524-2.696-2.823-3.921-4.047-1.547-1.548-59.063-59.816-64.651-64.646a3.7 3.7 0 0 0-1.06-.839L209.545 34.93a7.12 7.12 0 0 0-3.529-.93 7.13 7.13 0 0 0-3.533.932l-38.727 21.142c-.56.28-.981.673-1.288 1.205a3.4 3.4 0 0 0-.468 1.74v26.006c0 1.623 1.214 2.67 2.278 3.72 1.433 1.415 63.964 63.948 65.388 65.372 1.178 1.177 2.176 2.565 3.991 2.565.972 0 1.761-.317 2.413-.968.651-.652.968-1.441.968-2.413v-6.349q.126.13.259.253c.111.115.222.232.341.341.112.116.222.232.342.342.111.115.222.232.341.341.112.116.222.232.342.341.111.116.221.232.341.341.111.116.222.233.342.342.111.116.221.232.341.341q.165.175.341.342c.112.115.222.232.341.341.112.116.223.232.342.342.112.115.222.232.341.341.112.116.222.232.342.341.111.116.221.232.341.341.111.116.222.233.342.342.111.116.221.232.341.341q.165.175.341.342c.112.116.222.232.342.341.111.116.221.232.341.341.111.116.222.233.342.342.111.116.221.232.341.341q.165.175.341.342c.111.115.222.232.341.341.112.116.222.232.342.342.111.115.222.232.341.341.112.116.222.232.342.341.111.116.221.232.341.341.111.116.222.233.342.342.111.116.221.232.341.341q.165.175.341.342c.111.115.222.232.341.341.112.116.222.232.342.342.111.115.222.232.341.341.112.116.222.232.342.341a7.8 7.8 0 0 0 1.875 1.443l20.326 10.975a7.117 7.117 0 0 0 3.528.93 7.1 7.1 0 0 0 3.536-.934l20.313-10.969c1.24-.682 2.213-1.606 2.891-2.747s1.022-2.441 1.022-3.867v-19.505c0-.248.135-.477.353-.598l9.755-5.386c.626-.341 1.082-.764 1.355-1.255a3.4 3.4 0 0 0 .423-1.701c0-.632-.138-1.188-.422-1.7" opacity=".63"/></g><path fill="#7aa5e7" d="M205.99 103.533a7.1 7.1 0 0 1-3.526-.929L182.15 91.629c-1.235-.68-2.206-1.603-2.884-2.744-.678-1.14-1.022-2.44-1.022-3.866V65.516a.68.68 0 0 0-.353-.598l-8.122-4.47a.68.68 0 0 0-1.011.599v23.972c0 .971-.316 1.76-.967 2.412-.652.651-1.44.968-2.412.968-.971 0-1.759-.317-2.411-.968-.651-.652-.968-1.441-.968-2.412V59.015c0-.628.153-1.197.467-1.74a3 3 0 0 1 1.288-1.204l38.704-21.14a7.5 7.5 0 0 1 1.725-.7A7.1 7.1 0 0 1 205.99 34a7.1 7.1 0 0 1 3.527.93l34.321 18.692c.625.341 1.082.764 1.356 1.256.283.511.421 1.067.421 1.7 0 .632-.138 1.188-.422 1.7-.273.492-.73.914-1.355 1.255l-9.75 5.386a.68.68 0 0 0-.352.597V85.02c0 1.426-.345 2.727-1.022 3.866s-1.649 2.065-2.888 2.747L209.525 102.6a7.5 7.5 0 0 1-1.729.702 7 7 0 0 1-1.806.231M185.685 69.1a.684.684 0 0 0-.683.683V85.12a.68.68 0 0 0 .359.6l20.305 10.97a.67.67 0 0 0 .648 0l20.306-10.97a.68.68 0 0 0 .358-.6V69.783a.684.684 0 0 0-1.013-.598l-16.346 9.04a7.3 7.3 0 0 1-1.764.697 7.7 7.7 0 0 1-1.865.233 7.7 7.7 0 0 1-1.865-.233 7.3 7.3 0 0 1-1.763-.696l-16.347-9.041a.7.7 0 0 0-.33-.085m20.305-28.238a.7.7 0 0 0-.324.082l-27.819 15.033a.681.681 0 0 0 0 1.2l27.819 15.034a.68.68 0 0 0 .648 0l27.819-15.033a.681.681 0 0 0 0-1.201l-27.819-15.033a.7.7 0 0 0-.324-.082"/><path fill="#2d618c" d="M272.545 30c0-16.568 13.432-30 30-30h107.5v107.5c0 16.569-13.431 30-30 30h-107.5z"/><path fill="url(#b)" d="M0 0v137.5h68.594c38.056 0 68.906-30.78 68.906-68.75S106.65 0 68.594 0z"/><path fill="url(#c)" d="M504.205 70.409c17.087 0 30.938-13.851 30.938-30.938S521.292 8.534 504.205 8.534s-30.937 13.851-30.937 30.938 13.851 30.937 30.937 30.937"/><path fill="url(#d)" d="M547.5 137.5H410V0z"/><defs><linearGradient id="b" x1="11.202" x2="68.75" y1="15.728" y2="101.284" gradientUnits="userSpaceOnUse"><stop stop-color="#7aa5e7"/><stop offset="1" stop-color="#003ba1"/></linearGradient><linearGradient id="c" x1="473.268" x2="535.143" y1="39.471" y2="39.471" gradientUnits="userSpaceOnUse"><stop stop-color="#7aa5e7"/><stop offset=".997" stop-color="#003ba1"/></linearGradient><linearGradient id="d" x1="497.175" x2="409.548" y1="61.307" y2="137.36" gradientUnits="userSpaceOnUse"><stop stop-color="#7aa5e7"/><stop offset=".997" stop-color="#003ba1"/></linearGradient></defs></svg>
